angular-fe/src/assets/img/homepage-2.svg

<svg width="1280" height="857" viewBox="0 0 1280 857" fill="none" xmlns="http://www.w3.org/2000/svg">
<path fill-rule="evenodd" clip-rule="evenodd" d="M1280 461.682L1280 857H0V47V26.5C44.695 9.89905 94.4515 4.96893 142.564 2.49847C263.693 -3.72575 384.877 2.85253 506.095 9.43274C564.888 12.6242 623.689 15.8162 682.496 17.5481C827.978 21.8564 950.421 17.8212 1080.88 13.522C1144.18 11.4358 1209.37 9.28733 1280 8L1280 47L1280 461.682Z" fill="#EEEEEE"/>
</svg>

<?xml version="1.0" encoding="UTF-8"?>
<svg fill="none" viewBox="0 0 1280 857" xmlns="http://www.w3.org/2000/svg">
<path d="m1280 461.68v395.32h-1280v-830.5c44.695-16.601 94.452-21.531 142.56-24.002 121.13-6.2242 242.31 0.35406 363.53 6.9343 58.793 3.1915 117.59 6.3835 176.4 8.1154 145.48 4.3083 267.92 0.2731 398.38-4.0261 63.3-2.0862 128.49-4.2347 199.12-5.522v39 414.68z" clip-rule="evenodd" fill="#eee" fill-rule="evenodd"/>
</svg>
